icon-themes/breeze_svg/cmd/32/macrorecorder.svg

<svg viewBox="0 0 32 32" xmlns="http://www.w3.org/2000/svg"><path d="m16 13c-1.662 0-3 1.338-3 3s1.338 3 3 3 3-1.338 3-3-1.338-3-3-3z" fill="#da4453"/><path d="m15 4v2.0507812a10 10 0 0 0 -5.3242188 2.2109376l-1.453125-1.4550782-1.4160156 1.4160156 1.4550782 1.453125a10 10 0 0 0 -2.2011719 5.3242188h-2.0605469v2h2.0507812a10 10 0 0 0 2.2109376 5.324219l-1.4550782 1.453125 1.4160156 1.414062 1.453125-1.453125a10 10 0 0 0 5.3242188 2.201172v2.060547h2v-2.050781a10 10 0 0 0 5.324219-2.210938l1.453125 1.453125 1.416015-1.414062-1.455078-1.453125a10 10 0 0 0 2.201172-5.324219h2.060547v-2h-2.050781a10 10 0 0 0 -2.210938-5.3242188l1.455078-1.453125-1.416015-1.4160156-1.453125 1.4550782a10 10 0 0 0 -5.324219-2.2011719v-2.0605469zm1 3a9 9 0 0 1 6.457031 2.7304688 9 9 0 0 1 2.542969 6.2695312 9 9 0 0 1 -2.730469 6.457031 9 9 0 0 1 -6.269531 2.542969 9 9 0 0 1 -6.4570312-2.730469 9 9 0 0 1 -2.5429688-6.269531 9 9 0 0 1 2.7304688-6.4570312 9 9 0 0 1 6.2695312-2.5429688z" fill="#4d4d4d"/></svg>

<svg xmlns="http://www.w3.org/2000/svg" viewBox="0 0 32 32">
 <path 
     style="fill:#da4453" 
     d="M 16 13 C 14.338 13 13 14.338 13 16 C 13 17.662 14.338 19 16 19 C 17.662 19 19 17.662 19 16 C 19 14.338 17.662 13 16 13 z "
     />
 <path 
     style="fill:#4d4d4d" 
     d="M 15 4 L 15 6.0507812 A 10 10 0 0 0 9.6757812 8.2617188 L 8.2226562 6.8066406 L 6.8066406 8.2226562 L 8.2617188 9.6757812 A 10 10 0 0 0 6.0605469 15 L 4 15 L 4 17 L 6.0507812 17 A 10 10 0 0 0 8.2617188 22.324219 L 6.8066406 23.777344 L 8.2226562 25.191406 L 9.6757812 23.738281 A 10 10 0 0 0 15 25.939453 L 15 28 L 17 28 L 17 25.949219 A 10 10 0 0 0 22.324219 23.738281 L 23.777344 25.191406 L 25.193359 23.777344 L 23.738281 22.324219 A 10 10 0 0 0 25.939453 17 L 28 17 L 28 15 L 25.949219 15 A 10 10 0 0 0 23.738281 9.6757812 L 25.193359 8.2226562 L 23.777344 6.8066406 L 22.324219 8.2617188 A 10 10 0 0 0 17 6.0605469 L 17 4 L 15 4 z M 16 7 A 9 9 0 0 1 22.457031 9.7304688 A 9 9 0 0 1 25 16 A 9 9 0 0 1 22.269531 22.457031 A 9 9 0 0 1 16 25 A 9 9 0 0 1 9.5429688 22.269531 A 9 9 0 0 1 7 16 A 9 9 0 0 1 9.7304688 9.5429688 A 9 9 0 0 1 16 7 z "
     />
</svg>
